static/img/kroki/4a36354e9fce5096a6883db07ef5c572.svg

<?xml version="1.0" encoding="us-ascii" standalone="no"?><svg xmlns="http://www.w3.org/2000/svg" xmlns:xlink="http://www.w3.org/1999/xlink" contentStyleType="text/css" height="535px" preserveAspectRatio="none" style="width:492px;height:535px;" version="1.1" viewBox="0 0 492 535" width="492px" zoomAndPan="magnify"><defs/><g><!--class azure_compute_virtual_machine_base--><g id="elem_azure_compute_virtual_machine_base"><rect codeLine="23" fill="#3D176E" height="39.7891" id="azure_compute_virtual_machine_base" rx="2.5" ry="2.5" style="stroke:#000D19;stroke-width:0.5;" width="362" x="65" y="328.58"/><ellipse cx="80" cy="348.4745" fill="#ADD1B2" rx="11" ry="11" style="stroke:#181818;stroke-width:1.0;"/><path d="M82.9688,354.1152 Q82.3906,354.412 81.75,354.5527 Q81.1094,354.7089 80.4063,354.7089 Q77.9063,354.7089 76.5781,353.0683 Q75.2656,351.412 75.2656,348.287 Q75.2656,345.162 76.5781,343.5058 Q77.9063,341.8495 80.4063,341.8495 Q81.1094,341.8495 81.75,342.0058 Q82.4063,342.162 82.9688,342.4589 L82.9688,345.1777 Q82.3438,344.5995 81.75,344.3339 Q81.1563,344.0527 80.5313,344.0527 Q79.1875,344.0527 78.5,345.1308 Q77.8125,346.1933 77.8125,348.287 Q77.8125,350.3808 78.5,351.4589 Q79.1875,352.5214 80.5313,352.5214 Q81.1563,352.5214 81.75,352.2558 Q82.3438,351.9745 82.9688,351.3964 L82.9688,354.1152 Z " fill="#000000"/><text fill="#D9B8FF" font-family="Helvetica" font-size="17" lengthAdjust="spacing" textLength="320" x="99" y="354.3598">azure_compute_virtual_machine_base</text></g><!--class azure_compute_virtual_machine_scale_set_instance--><g id="elem_azure_compute_virtual_machine_scale_set_instance"><rect codeLine="26" fill="#3D176E" height="39.7891" id="azure_compute_virtual_machine_scale_set_instance" rx="2.5" ry="2.5" style="stroke:#000D19;stroke-width:0.5;" width="478" x="7" y="489.37"/><ellipse cx="22" cy="509.2645" fill="#ADD1B2" rx="11" ry="11" style="stroke:#181818;stroke-width:1.0;"/><path d="M24.9688,514.9052 Q24.3906,515.202 23.75,515.3427 Q23.1094,515.4989 22.4063,515.4989 Q19.9063,515.4989 18.5781,513.8583 Q17.2656,512.202 17.2656,509.077 Q17.2656,505.952 18.5781,504.2958 Q19.9063,502.6395 22.4063,502.6395 Q23.1094,502.6395 23.75,502.7958 Q24.4063,502.952 24.9688,503.2489 L24.9688,505.9677 Q24.3438,505.3895 23.75,505.1239 Q23.1563,504.8427 22.5313,504.8427 Q21.1875,504.8427 20.5,505.9208 Q19.8125,506.9833 19.8125,509.077 Q19.8125,511.1708 20.5,512.2489 Q21.1875,513.3114 22.5313,513.3114 Q23.1563,513.3114 23.75,513.0458 Q24.3438,512.7645 24.9688,512.1864 L24.9688,514.9052 Z " fill="#000000"/><text fill="#D9B8FF" font-family="Helvetica" font-size="17" lengthAdjust="spacing" textLength="436" x="41" y="515.1498">azure_compute_virtual_machine_scale_set_instance</text></g><!--class instance--><g id="elem_instance"><rect codeLine="29" fill="#3D176E" height="39.7891" id="instance" rx="2.5" ry="2.5" style="stroke:#000D19;stroke-width:0.5;" width="112" x="95" y="167.79"/><ellipse cx="110" cy="187.6845" fill="#ADD1B2" rx="11" ry="11" style="stroke:#181818;stroke-width:1.0;"/><path d="M112.9688,193.3252 Q112.3906,193.622 111.75,193.7627 Q111.1094,193.9189 110.4063,193.9189 Q107.9063,193.9189 106.5781,192.2783 Q105.2656,190.622 105.2656,187.497 Q105.2656,184.372 106.5781,182.7158 Q107.9063,181.0595 110.4063,181.0595 Q111.1094,181.0595 111.75,181.2158 Q112.4063,181.372 112.9688,181.6689 L112.9688,184.3877 Q112.3438,183.8095 111.75,183.5439 Q111.1563,183.2627 110.5313,183.2627 Q109.1875,183.2627 108.5,184.3408 Q107.8125,185.4033 107.8125,187.497 Q107.8125,189.5908 108.5,190.6689 Q109.1875,191.7314 110.5313,191.7314 Q111.1563,191.7314 111.75,191.4658 Q112.3438,191.1845 112.9688,190.6064 L112.9688,193.3252 Z " fill="#000000"/><text fill="#D9B8FF" font-family="Helvetica" font-size="17" lengthAdjust="spacing" textLength="70" x="129" y="193.5698">instance</text></g><!--class microsoft_resource--><g id="elem_microsoft_resource"><rect codeLine="32" fill="#3D176E" height="39.7891" id="microsoft_resource" rx="2.5" ry="2.5" style="stroke:#000D19;stroke-width:0.5;" width="200" x="242" y="167.79"/><ellipse cx="257" cy="187.6845" fill="#ADD1B2" rx="11" ry="11" style="stroke:#181818;stroke-width:1.0;"/><path d="M259.9688,193.3252 Q259.3906,193.622 258.75,193.7627 Q258.1094,193.9189 257.4063,193.9189 Q254.9063,193.9189 253.5781,192.2783 Q252.2656,190.622 252.2656,187.497 Q252.2656,184.372 253.5781,182.7158 Q254.9063,181.0595 257.4063,181.0595 Q258.1094,181.0595 258.75,181.2158 Q259.4063,181.372 259.9688,181.6689 L259.9688,184.3877 Q259.3438,183.8095 258.75,183.5439 Q258.1563,183.2627 257.5313,183.2627 Q256.1875,183.2627 255.5,184.3408 Q254.8125,185.4033 254.8125,187.497 Q254.8125,189.5908 255.5,190.6689 Q256.1875,191.7314 257.5313,191.7314 Q258.1563,191.7314 258.75,191.4658 Q259.3438,191.1845 259.9688,190.6064 L259.9688,193.3252 Z " fill="#000000"/><text fill="#D9B8FF" font-family="Helvetica" font-size="17" lengthAdjust="spacing" textLength="158" x="276" y="193.5698">microsoft_resource</text></g><!--class resource--><g id="elem_resource"><rect codeLine="35" fill="#3D176E" height="39.7891" id="resource" rx="2.5" ry="2.5" style="stroke:#000D19;stroke-width:0.5;" width="113" x="189.5" y="7"/><ellipse cx="204.5" cy="26.8945" fill="#ADD1B2" rx="11" ry="11" style="stroke:#181818;stroke-width:1.0;"/><path d="M207.4688,32.5352 Q206.8906,32.832 206.25,32.9727 Q205.6094,33.1289 204.9063,33.1289 Q202.4063,33.1289 201.0781,31.4883 Q199.7656,29.832 199.7656,26.707 Q199.7656,23.582 201.0781,21.9258 Q202.4063,20.2695 204.9063,20.2695 Q205.6094,20.2695 206.25,20.4258 Q206.9063,20.582 207.4688,20.8789 L207.4688,23.5977 Q206.8438,23.0195 206.25,22.7539 Q205.6563,22.4727 205.0313,22.4727 Q203.6875,22.4727 203,23.5508 Q202.3125,24.6133 202.3125,26.707 Q202.3125,28.8008 203,29.8789 Q203.6875,30.9414 205.0313,30.9414 Q205.6563,30.9414 206.25,30.6758 Q206.8438,30.3945 207.4688,29.8164 L207.4688,32.5352 Z " fill="#000000"/><text fill="#D9B8FF" font-family="Helvetica" font-size="17" lengthAdjust="spacing" textLength="71" x="223.5" y="32.7798">resource</text></g><!--reverse link instance to azure_compute_virtual_machine_base--><g id="link_instance_azure_compute_virtual_machine_base"><path codeLine="38" d="M171.7016,223.2865 C189.9616,253.8065 216.22,297.69 234.5,328.25 " fill="none" id="instance-backto-azure_compute_virtual_machine_base" style="stroke:#FFAF37;stroke-width:2.0;"/><polygon fill="none" points="162.46,207.84,166.5527,226.367,176.8504,220.2059,162.46,207.84" style="stroke:#FFAF37;stroke-width:2.0;"/></g><!--reverse link microsoft_resource to azure_compute_virtual_machine_base--><g id="link_microsoft_resource_azure_compute_virtual_machine_base"><path codeLine="39" d="M321.1079,223.2441 C302.6579,253.7641 276.1,297.69 257.62,328.25 " fill="none" id="microsoft_resource-backto-azure_compute_virtual_machine_base" style="stroke:#FFAF37;stroke-width:2.0;"/><polygon fill="none" points="330.42,207.84,315.9732,220.14,326.2426,226.3481,330.42,207.84" style="stroke:#FFAF37;stroke-width:2.0;"/></g><!--reverse link azure_compute_virtual_machine_base to azure_compute_virtual_machine_scale_set_instance--><g id="link_azure_compute_virtual_machine_base_azure_compute_virtual_machine_scale_set_instance"><path codeLine="40" d="M246,386.63 C246,417.15 246,458.48 246,489.04 " fill="none" id="azure_compute_virtual_machine_base-backto-azure_compute_virtual_machine_scale_set_instance" style="stroke:#FFAF37;stroke-width:2.0;"/><polygon fill="none" points="246,368.63,240,386.63,252,386.63,246,368.63" style="stroke:#FFAF37;stroke-width:2.0;"/></g><!--reverse link resource to instance--><g id="link_resource_instance"><path codeLine="41" d="M225.2984,62.4965 C207.0384,93.0165 180.78,136.9 162.5,167.47 " fill="none" id="resource-backto-instance" style="stroke:#FFAF37;stroke-width:2.0;"/><polygon fill="none" points="234.54,47.05,220.1496,59.4159,230.4473,65.577,234.54,47.05" style="stroke:#FFAF37;stroke-width:2.0;"/></g><!--reverse link resource to microsoft_resource--><g id="link_resource_microsoft_resource"><path codeLine="42" d="M266.8921,62.4541 C285.3421,92.9741 311.9,136.9 330.38,167.47 " fill="none" id="resource-backto-microsoft_resource" style="stroke:#FFAF37;stroke-width:2.0;"/><polygon fill="none" points="257.58,47.05,261.7574,65.5581,272.0268,59.35,257.58,47.05" style="stroke:#FFAF37;stroke-width:2.0;"/></g><!--SRC=[ZP5FRy8m3CNl_HIHE2F1q0P8kp2aQRkWQUnUkOb38vgaSbmGRFlkWx6X_WDwoU6zd-rd9pKA1TgSTyAYJP125DR6vK1WnOp8R-S-yoHwMeCUZUlcitTy4rY0HV62sGRPIAWJ7wcHQuSXYBkIzGHolI9VE7LgpmGk72nqNABc6OGmOoQJ58obC6gQJBIka_MclP4QZX-mWNbII7_8O31GmsaTkJdgwjvdOcdsA8RbeoqyOoDcOyGlTJNbaIY5R2pwxr_C-0PA6RSIzoNj_PI97595NwQW_FP8QyX2UKnW9FIyot7Us0gd4wN7hV3h9JYInzC9s1U4iVGsFtnxl3741MIn1PaQXt420SLd57rteeE4xF0YnyO51YShjMsQDP9yy9fZmk0BghfLxLp_-DNlzpi4ZrgwTwxjS9SklPedYMfPBkdDyD4F]--></g></svg>

<svg xmlns="http://www.w3.org/2000/svg" width="492" height="535" viewBox="0 0 492 535"><rect width="362" height="39.789" x="65" y="328.58" fill="#3D176E" rx="2.5" ry="2.5" style="stroke:#000d19;stroke-width:.5"/><circle cx="80" cy="348.474" r="11" fill="#ADD1B2" style="stroke:#181818;stroke-width:1"/><path d="M82.969 354.115q-.578.297-1.219.438-.64.156-1.344.156-2.5 0-3.828-1.64-1.312-1.657-1.312-4.782t1.312-4.781q1.328-1.656 3.828-1.656.703 0 1.344.156.656.156 1.219.453v2.719q-.625-.579-1.219-.844-.594-.281-1.219-.281-1.344 0-2.031 1.078-.687 1.062-.687 3.156t.687 3.172q.688 1.062 2.031 1.062.625 0 1.219-.265.594-.281 1.219-.86z"/><text x="99" y="354.36" fill="#D9B8FF" font-family="Helvetica" font-size="17" textLength="320">azure_compute_virtual_machine_base</text><rect width="478" height="39.789" x="7" y="489.37" fill="#3D176E" rx="2.5" ry="2.5" style="stroke:#000d19;stroke-width:.5"/><circle cx="22" cy="509.264" r="11" fill="#ADD1B2" style="stroke:#181818;stroke-width:1"/><path d="M24.969 514.905q-.578.297-1.219.438-.64.156-1.344.156-2.5 0-3.828-1.64-1.312-1.657-1.312-4.782t1.312-4.781q1.328-1.656 3.828-1.656.703 0 1.344.156.656.156 1.219.453v2.719q-.625-.579-1.219-.844-.594-.281-1.219-.281-1.343 0-2.031 1.078-.687 1.062-.687 3.156t.687 3.172q.688 1.062 2.031 1.062.625 0 1.219-.265.594-.282 1.219-.86z"/><text x="41" y="515.15" fill="#D9B8FF" font-family="Helvetica" font-size="17" textLength="436">azure_compute_virtual_machine_scale_set_instance</text><rect width="112" height="39.789" x="95" y="167.79" fill="#3D176E" rx="2.5" ry="2.5" style="stroke:#000d19;stroke-width:.5"/><circle cx="110" cy="187.685" r="11" fill="#ADD1B2" style="stroke:#181818;stroke-width:1"/><path d="M112.969 193.325q-.578.297-1.219.438-.64.156-1.344.156-2.5 0-3.828-1.64-1.312-1.657-1.312-4.782t1.312-4.781q1.328-1.656 3.828-1.656.703 0 1.344.156.656.156 1.219.453v2.719q-.625-.578-1.219-.844-.594-.281-1.219-.281-1.344 0-2.031 1.078-.687 1.062-.687 3.156t.687 3.172q.688 1.062 2.031 1.062.625 0 1.219-.265.594-.281 1.219-.86z"/><text x="129" y="193.57" fill="#D9B8FF" font-family="Helvetica" font-size="17" textLength="70">instance</text><rect width="200" height="39.789" x="242" y="167.79" fill="#3D176E" rx="2.5" ry="2.5" style="stroke:#000d19;stroke-width:.5"/><circle cx="257" cy="187.685" r="11" fill="#ADD1B2" style="stroke:#181818;stroke-width:1"/><path d="M259.969 193.325q-.578.297-1.219.438-.64.156-1.344.156-2.5 0-3.828-1.64-1.312-1.657-1.312-4.782t1.312-4.781q1.328-1.656 3.828-1.656.703 0 1.344.156.656.156 1.219.453v2.719q-.625-.578-1.219-.844-.594-.281-1.219-.281-1.344 0-2.031 1.078-.687 1.062-.687 3.156t.687 3.172q.688 1.062 2.031 1.062.625 0 1.219-.265.594-.281 1.219-.86z"/><text x="276" y="193.57" fill="#D9B8FF" font-family="Helvetica" font-size="17" textLength="158">microsoft_resource</text><rect width="113" height="39.789" x="189.5" y="7" fill="#3D176E" rx="2.5" ry="2.5" style="stroke:#000d19;stroke-width:.5"/><circle cx="204.5" cy="26.895" r="11" fill="#ADD1B2" style="stroke:#181818;stroke-width:1"/><path d="M207.469 32.535q-.578.297-1.219.438-.64.156-1.344.156-2.5 0-3.828-1.64-1.312-1.657-1.312-4.782t1.312-4.781q1.328-1.656 3.828-1.656.703 0 1.344.156.656.156 1.219.453v2.719q-.625-.578-1.219-.844-.594-.281-1.219-.281-1.344 0-2.031 1.078-.687 1.062-.687 3.156t.687 3.172q.688 1.062 2.031 1.062.625 0 1.219-.265.594-.281 1.219-.86z"/><text x="223.5" y="32.78" fill="#D9B8FF" font-family="Helvetica" font-size="17" textLength="71">resource</text><path fill="none" d="M171.702 223.287c18.26 30.52 44.518 74.403 62.798 104.963m-72.04-120.41 4.093 18.527 10.297-6.161z" style="stroke:#ffaf37;stroke-width:2"/><g fill="none"><path d="M321.108 223.244c-18.45 30.52-45.008 74.446-63.488 105.006" style="stroke:#ffaf37;stroke-width:2"/><path d="m330.42 207.84-14.447 12.3 10.27 6.208z" style="stroke:#ffaf37;stroke-width:2"/></g><path fill="none" d="M246 386.63v102.41m0-120.41-6 18h12zM225.298 62.497C207.038 93.017 180.78 136.9 162.5 167.47m72.04-120.42-14.39 12.366 10.297 6.161zm32.352 15.404c18.45 30.52 45.008 74.446 63.488 105.016m-72.8-120.42 4.177 18.508 10.27-6.208z" style="stroke:#ffaf37;stroke-width:2"/></svg>
